img/icons/add-icon.svg

<svg width="41" height="41" viewBox="0 0 41 41" fill="none" xmlns="http://www.w3.org/2000/svg">
<path d="M24.3438 0H4.69792C2.10125 0 0 2.10125 0 4.69792V31.1771C0 33.7738 2.10125 35.875 4.69792 35.875H15.9558C15.0333 33.9275 14.5208 31.7579 14.5208 29.4688C14.5208 27.5042 14.8967 25.625 15.6142 23.8996C15.9558 23.0283 16.3829 22.1912 16.8783 21.4225C17.9888 19.6971 19.4237 18.2279 21.115 17.0833C21.9862 16.4854 22.9088 15.99 23.8996 15.6142C25.4883 14.9479 27.2308 14.5721 29.0417 14.5379V4.69792C29.0417 2.10125 26.9404 0 24.3438 0Z" fill="#ECEFF1"/>
<path d="M23.9167 15.3743C23.9167 15.4598 23.9167 15.5452 23.8996 15.6135C22.9087 15.9893 21.9862 16.4848 21.115 17.0827H6.83333C5.89375 17.0827 5.125 16.3139 5.125 15.3743C5.125 14.4348 5.89375 13.666 6.83333 13.666H22.2083C23.1479 13.666 23.9167 14.4348 23.9167 15.3743Z" fill="#90A4AE"/>
<path d="M16.8783 21.4225C16.3829 22.1913 15.9558 23.0283 15.6142 23.8996C15.5458 23.9167 15.4604 23.9167 15.375 23.9167H6.83333C5.89375 23.9167 5.125 23.1479 5.125 22.2083C5.125 21.2688 5.89375 20.5 6.83333 20.5H15.375C16.0242 20.5 16.605 20.8758 16.8783 21.4225Z" fill="#90A4AE"/>
<path d="M13.6667 10.2497H6.83333C5.89033 10.2497 5.125 9.48434 5.125 8.54134C5.125 7.59834 5.89033 6.83301 6.83333 6.83301H13.6667C14.6097 6.83301 15.375 7.59834 15.375 8.54134C15.375 9.48434 14.6097 10.2497 13.6667 10.2497Z" fill="#90A4AE"/>
<path d="M29.4688 41C23.1103 41 17.9375 35.8272 17.9375 29.4688C17.9375 23.1103 23.1103 17.9375 29.4688 17.9375C35.8272 17.9375 41 23.1103 41 29.4688C41 35.8272 35.8272 41 29.4688 41Z" fill="#2196F3"/>
<path d="M29.4681 35.875C28.5251 35.875 27.7598 35.1097 27.7598 34.1667V24.7708C27.7598 23.8278 28.5251 23.0625 29.4681 23.0625C30.4111 23.0625 31.1764 23.8278 31.1764 24.7708V34.1667C31.1764 35.1097 30.4111 35.875 29.4681 35.875Z" fill="white"/>
<path d="M34.1667 31.1774H24.7708C23.8278 31.1774 23.0625 30.4121 23.0625 29.4691C23.0625 28.5261 23.8278 27.7607 24.7708 27.7607H34.1667C35.1097 27.7607 35.875 28.5261 35.875 29.4691C35.875 30.4121 35.1097 31.1774 34.1667 31.1774Z" fill="white"/>
</svg>

<svg width="41" height="41" fill="none" xmlns="http://www.w3.org/2000/svg"><path d="M24.344 0H4.698A4.695 4.695 0 000 4.698v26.48a4.695 4.695 0 004.698 4.697h11.258a14.916 14.916 0 01-1.435-6.406c0-1.965.376-3.844 1.093-5.57.342-.87.769-1.708 1.264-2.477a15.08 15.08 0 014.237-4.339 13.146 13.146 0 012.785-1.469 13.973 13.973 0 015.142-1.076v-9.84A4.695 4.695 0 0024.344 0z" fill="#ECEFF1"/><path d="M23.917 15.374c0 .086 0 .171-.017.24-.991.375-1.914.87-2.785 1.469H6.833c-.94 0-1.708-.77-1.708-1.709 0-.94.769-1.708 1.708-1.708h15.375c.94 0 1.709.769 1.709 1.708zM16.878 21.422a14.077 14.077 0 00-1.264 2.478c-.068.017-.154.017-.239.017H6.833c-.94 0-1.708-.77-1.708-1.709 0-.94.769-1.708 1.708-1.708h8.542c.65 0 1.23.376 1.503.922zM13.667 10.25H6.833a1.709 1.709 0 010-3.417h6.834a1.709 1.709 0 010 3.417z" fill="#90A4AE"/><path d="M29.469 41c-6.359 0-11.532-5.173-11.532-11.531 0-6.359 5.173-11.532 11.532-11.532C35.827 17.938 41 23.11 41 29.47 41 35.827 35.827 41 29.469 41z" fill="#2196F3"/><path d="M29.468 35.875a1.709 1.709 0 01-1.708-1.708V24.77a1.709 1.709 0 013.416 0v9.396c0 .943-.765 1.708-1.708 1.708z" fill="#fff"/><path d="M34.167 31.177H24.77a1.709 1.709 0 010-3.416h9.396a1.709 1.709 0 010 3.416z" fill="#fff"/></svg>
